images/portal/4875.svg

<?xml version="1.0" standalone="no"?><!DOCTYPE svg PUBLIC "-//W3C//DTD SVG 1.1//EN" "http://www.w3.org/Graphics/SVG/1.1/DTD/svg11.dtd"><svg xmlns:xlink="http://www.w3.org/1999/xlink" version="1.1" class="highcharts-root" style="font-family:arial;font-size:12px;" xmlns="http://www.w3.org/2000/svg" width="485" height="415"><desc>Created with Highstock 5.0.14</desc><defs><clipPath id="highcharts-xsk3y1s-6"><rect x="0" y="0" width="282" height="280" fill="none"></rect></clipPath><clipPath id="highcharts-xsk3y1s-7"><rect x="0" y="0" width="282" height="280" fill="none"></rect></clipPath></defs><rect fill="#fbfbfb" class="highcharts-background" x="0" y="0" width="485" height="415" rx="0" ry="0"></rect><rect fill="none" class="highcharts-plot-background" x="53" y="70" width="282" height="280"></rect><g class="highcharts-pane-group"></g><g class="highcharts-grid highcharts-xaxis-grid "><path fill="none" class="highcharts-grid-line" d="M 193.5 70 L 193.5 350" opacity="1"></path><path fill="none" class="highcharts-grid-line" d="M 334.5 70 L 334.5 350" opacity="1"></path><path fill="none" class="highcharts-grid-line" d="M 52.5 70 L 52.5 350" opacity="1"></path></g><g class="highcharts-grid highcharts-yaxis-grid "><path fill="none" stroke="#B9CFD7" stroke-width="0.5" class="highcharts-grid-line" d="M 53 350.25 L 335 350.25" opacity="1"></path><path fill="none" stroke="#B9CFD7" stroke-width="0.5" class="highcharts-grid-line" d="M 53 322.25 L 335 322.25" opacity="1"></path><path fill="none" stroke="#B9CFD7" stroke-width="0.5" class="highcharts-grid-line" d="M 53 294.25 L 335 294.25" opacity="1"></path><path fill="none" stroke="#B9CFD7" stroke-width="0.5" class="highcharts-grid-line" d="M 53 266.25 L 335 266.25" opacity="1"></path><path fill="none" stroke="#B9CFD7" stroke-width="0.5" class="highcharts-grid-line" d="M 53 238.25 L 335 238.25" opacity="1"></path><path fill="none" stroke="#B9CFD7" stroke-width="0.5" class="highcharts-grid-line" d="M 53 210.25 L 335 210.25" opacity="1"></path><path fill="none" stroke="#B9CFD7" stroke-width="0.5" class="highcharts-grid-line" d="M 53 182.25 L 335 182.25" opacity="1"></path><path fill="none" stroke="#B9CFD7" stroke-width="0.5" class="highcharts-grid-line" d="M 53 154.25 L 335 154.25" opacity="1"></path><path fill="none" stroke="#B9CFD7" stroke-width="0.5" class="highcharts-grid-line" d="M 53 126.25 L 335 126.25" opacity="1"></path><path fill="none" stroke="#B9CFD7" stroke-width="0.5" class="highcharts-grid-line" d="M 53 98.25 L 335 98.25" opacity="1"></path><path fill="none" stroke="#B9CFD7" stroke-width="0.5" class="highcharts-grid-line" d="M 53 69.75 L 335 69.75" opacity="1"></path></g><rect fill="none" class="highcharts-plot-border" x="53" y="70" width="282" height="280"></rect><g class="highcharts-axis highcharts-xaxis "><path fill="none" class="highcharts-tick" stroke="#FFFFFF" stroke-width="1" d="M 193.5 350 L 193.5 360" opacity="1"></path><path fill="none" class="highcharts-tick" stroke="#FFFFFF" stroke-width="1" d="M 335.5 350 L 335.5 360" opacity="1"></path><path fill="none" class="highcharts-tick" stroke="#FFFFFF" stroke-width="1" d="M 52.5 350 L 52.5 360" opacity="1"></path><path fill="none" class="highcharts-axis-line" stroke="#B9CFD7" stroke-width="0.5" d="M 53 350.25 L 335 350.25"></path></g><g class="highcharts-axis highcharts-yaxis "><path fill="none" class="highcharts-axis-line" d="M 53 70 L 53 350"></path></g><g class="highcharts-series-group"><g class="highcharts-series highcharts-series-0 highcharts-column-series highcharts-color-undefined " transform="translate(53,70) scale(1 1)" clip-path="url(#highcharts-xsk3y1s-7)"><rect x="37" y="205" width="68" height="76" fill="#007A2F" class="highcharts-point"></rect><rect x="178" y="198" width="68" height="83" fill="#007A2F" class="highcharts-point"></rect></g><g class="highcharts-markers highcharts-series-0 highcharts-column-series highcharts-color-undefined " transform="translate(53,70) scale(1 1)" clip-path="none"></g><g class="highcharts-series highcharts-series-1 highcharts-column-series highcharts-color-undefined " transform="translate(53,70) scale(1 1)" clip-path="url(#highcharts-xsk3y1s-7)"><rect x="37" y="63" width="68" height="142" fill="#73BA7C" class="highcharts-point"></rect><rect x="178" y="57" width="68" height="141" fill="#73BA7C" class="highcharts-point"></rect></g><g class="highcharts-markers highcharts-series-1 highcharts-column-series highcharts-color-undefined " transform="translate(53,70) scale(1 1)" clip-path="none"></g><g class="highcharts-series highcharts-series-2 highcharts-column-series highcharts-color-undefined " transform="translate(53,70) scale(1 1)" clip-path="url(#highcharts-xsk3y1s-7)"><rect x="37" y="47" width="68" height="16" fill="#C8C8C8" class="highcharts-point"></rect><rect x="178" y="44" width="68" height="13" fill="#C8C8C8" class="highcharts-point"></rect></g><g class="highcharts-markers highcharts-series-2 highcharts-column-series highcharts-color-undefined " transform="translate(53,70) scale(1 1)" clip-path="none"></g><g class="highcharts-series highcharts-series-3 highcharts-column-series highcharts-color-undefined " transform="translate(53,70) scale(1 1)" clip-path="url(#highcharts-xsk3y1s-7)"><rect x="37" y="31" width="68" height="16" fill="#8A8A8A" class="highcharts-point"></rect><rect x="178" y="33" width="68" height="11" fill="#8A8A8A" class="highcharts-point"></rect></g><g class="highcharts-markers highcharts-series-3 highcharts-column-series highcharts-color-undefined " transform="translate(53,70) scale(1 1)" clip-path="none"></g><g class="highcharts-series highcharts-series-4 highcharts-column-series highcharts-color-undefined " transform="translate(53,70) scale(1 1)" clip-path="url(#highcharts-xsk3y1s-7)"><rect x="37" y="5" width="68" height="26" fill="#FFBB58" class="highcharts-point"></rect><rect x="178" y="5" width="68" height="28" fill="#FFBB58" class="highcharts-point"></rect></g><g class="highcharts-markers highcharts-series-4 highcharts-column-series highcharts-color-undefined " transform="translate(53,70) scale(1 1)" clip-path="none"></g><g class="highcharts-series highcharts-series-5 highcharts-column-series highcharts-color-undefined " transform="translate(53,70) scale(1 1)" clip-path="url(#highcharts-xsk3y1s-7)"><rect x="37" y="0" width="68" height="5" fill="#FF8028" class="highcharts-point"></rect><rect x="178" y="0" width="68" height="5" fill="#FF8028" class="highcharts-point"></rect></g><g class="highcharts-markers highcharts-series-5 highcharts-column-series highcharts-color-undefined " transform="translate(53,70) scale(1 1)" clip-path="none"></g></g><text x="10" text-anchor="start" class="highcharts-title" style="color:#000000;font-size:14px;font-weight:bold;fill:#000000;" y="21"><tspan>Zufriedenheit mit Sozialkontakten im Wohnumfeld</tspan></text><text x="10" text-anchor="start" class="highcharts-subtitle" style="color:#000000;font-size:12px;fill:#000000;" y="40"><tspan>«Wie zufrieden sind Sie am aktuellen Wohnort mit den Sozialkontakten im</tspan><tspan dy="15" x="10">Wohnumfeld/Quartier?»</tspan><title>«Wie zufrieden sind Sie am aktuellen Wohnort mit den Sozialkontakten im Wohnumfeld/Quartier?»</title></text><g class="highcharts-legend" transform="translate(347,135)"><rect fill="none" class="highcharts-legend-box" rx="0" ry="0" x="0" y="0" width="128" height="125" visibility="visible"></rect><g><g><g class="highcharts-legend-item highcharts-column-series highcharts-color-undefined highcharts-series-5" transform="translate(8,3)"><text x="21" style="color:#333333;font-size:12px;font-weight:normal;cursor:pointer;fill:#333333;" text-anchor="start" y="15"><tspan>Sehr unzufrieden</tspan></text><rect x="2" y="4" width="12" height="12" fill="#FF8028" class="highcharts-point"></rect></g><g class="highcharts-legend-item highcharts-column-series highcharts-color-undefined highcharts-series-4" transform="translate(8,22)"><text x="21" y="15" style="color:#333333;font-size:12px;font-weight:normal;cursor:pointer;fill:#333333;" text-anchor="start"><tspan>Eher unzufrieden</tspan></text><rect x="2" y="4" width="12" height="12" fill="#FFBB58" class="highcharts-point"></rect></g><g class="highcharts-legend-item highcharts-column-series highcharts-color-undefined highcharts-series-3" transform="translate(8,41)"><text x="21" y="15" style="color:#333333;font-size:12px;font-weight:normal;cursor:pointer;fill:#333333;" text-anchor="start"><tspan>Keine Angabe</tspan></text><rect x="2" y="4" width="12" height="12" fill="#8A8A8A" class="highcharts-point"></rect></g><g class="highcharts-legend-item highcharts-column-series highcharts-color-undefined highcharts-series-2" transform="translate(8,60)"><text x="21" y="15" style="color:#333333;font-size:12px;font-weight:normal;cursor:pointer;fill:#333333;" text-anchor="start"><tspan>Weiss nicht</tspan></text><rect x="2" y="4" width="12" height="12" fill="#C8C8C8" class="highcharts-point"></rect></g><g class="highcharts-legend-item highcharts-column-series highcharts-color-undefined highcharts-series-1" transform="translate(8,79)"><text x="21" y="15" style="color:#333333;font-size:12px;font-weight:normal;cursor:pointer;fill:#333333;" text-anchor="start"><tspan>Eher zufrieden</tspan></text><rect x="2" y="4" width="12" height="12" fill="#73BA7C" class="highcharts-point"></rect></g><g class="highcharts-legend-item highcharts-column-series highcharts-color-undefined highcharts-series-0" transform="translate(8,98)"><text x="21" y="15" style="color:#333333;font-size:12px;font-weight:normal;cursor:pointer;fill:#333333;" text-anchor="start"><tspan>Sehr zufrieden</tspan></text><rect x="2" y="4" width="12" height="12" fill="#007A2F" class="highcharts-point"></rect></g></g></g></g><g class="highcharts-axis-labels highcharts-xaxis-labels "><text x="123.5" style="color:#000000;cursor:default;font-size:11px;fill:#000000;" text-anchor="middle" transform="translate(0,0)" y="369" opacity="1"><tspan>2011</tspan><tspan x="123.5" dy="14">(N=1689)</tspan></text><text x="264.5" style="color:#000000;cursor:default;font-size:11px;fill:#000000;" text-anchor="middle" transform="translate(0,0)" y="369" opacity="1"><tspan>2015</tspan><tspan x="264.5" dy="14">(N=1427)</tspan></text></g><g class="highcharts-axis-labels highcharts-yaxis-labels "><text x="38" style="color:#000000;cursor:default;font-size:11px;fill:#000000;" text-anchor="end" transform="translate(0,0)" y="355" opacity="1"><tspan>0%</tspan></text><text x="38" style="color:#000000;cursor:default;font-size:11px;fill:#000000;" text-anchor="end" transform="translate(0,0)" y="327" opacity="1"><tspan>10%</tspan></text><text x="38" style="color:#000000;cursor:default;font-size:11px;fill:#000000;" text-anchor="end" transform="translate(0,0)" y="299" opacity="1"><tspan>20%</tspan></text><text x="38" style="color:#000000;cursor:default;font-size:11px;fill:#000000;" text-anchor="end" transform="translate(0,0)" y="271" opacity="1"><tspan>30%</tspan></text><text x="38" style="color:#000000;cursor:default;font-size:11px;fill:#000000;" text-anchor="end" transform="translate(0,0)" y="243" opacity="1"><tspan>40%</tspan></text><text x="38" style="color:#000000;cursor:default;font-size:11px;fill:#000000;" text-anchor="end" transform="translate(0,0)" y="215" opacity="1"><tspan>50%</tspan></text><text x="38" style="color:#000000;cursor:default;font-size:11px;fill:#000000;" text-anchor="end" transform="translate(0,0)" y="187" opacity="1"><tspan>60%</tspan></text><text x="38" style="color:#000000;cursor:default;font-size:11px;fill:#000000;" text-anchor="end" transform="translate(0,0)" y="159" opacity="1"><tspan>70%</tspan></text><text x="38" style="color:#000000;cursor:default;font-size:11px;fill:#000000;" text-anchor="end" transform="translate(0,0)" y="131" opacity="1"><tspan>80%</tspan></text><text x="38" style="color:#000000;cursor:default;font-size:11px;fill:#000000;" text-anchor="end" transform="translate(0,0)" y="103" opacity="1"><tspan>90%</tspan></text><text x="38" style="color:#000000;cursor:default;font-size:11px;fill:#000000;" text-anchor="end" transform="translate(0,0)" y="75" opacity="1"><tspan>100%</tspan></text></g><text x="10" class="highcharts-credits" text-anchor="start" style="cursor:default;color:#000000;font-size:10px;fill:#000000;" y="400"><tspan>Quelle: Statistisches Amt Basel-Stadt, kantonale Befragung 55plus: F10g</tspan></text></svg>

<svg class="highcharts-root" xmlns="http://www.w3.org/2000/svg" width="485" height="415" font-family="arial" font-size="12">
    <defs>
        <clipPath id="a">
            <path fill="none" d="M0 0h282v280H0z"/>
        </clipPath>
    </defs>
    <rect fill="#fbfbfb" class="highcharts-background" width="485" height="415" rx="0" ry="0"/>
    <path fill="none" class="highcharts-plot-background" d="M53 70h282v280H53z"/>
    <g class="highcharts-grid highcharts-xaxis-grid">
        <path fill="none" class="highcharts-grid-line" d="M193.5 70v280m141-280v280M52.5 70v280"/>
    </g>
    <g class="highcharts-grid highcharts-yaxis-grid">
        <path fill="none" stroke="#B9CFD7" stroke-width=".5" class="highcharts-grid-line" d="M53 350.25h282m-282-28h282m-282-28h282m-282-28h282m-282-28h282m-282-28h282m-282-28h282m-282-28h282m-282-28h282m-282-28h282M53 69.75h282"/>
    </g>
    <path fill="none" class="highcharts-plot-border" d="M53 70h282v280H53z"/>
    <g class="highcharts-axis highcharts-xaxis">
        <path fill="none" class="highcharts-tick" stroke="#FFF" d="M193.5 350v10m142-10v10m-283-10v10"/>
        <path fill="none" class="highcharts-axis-line" stroke="#B9CFD7" stroke-width=".5" d="M53 350.25h282"/>
    </g>
    <g class="highcharts-axis highcharts-yaxis">
        <path fill="none" class="highcharts-axis-line" d="M53 70v280"/>
    </g>
    <g class="highcharts-series-group">
        <g class="highcharts-series highcharts-series-0 highcharts-column-series highcharts-color-undefined" transform="translate(53 70)" clip-path="url(#a)">
            <path fill="#007A2F" class="highcharts-point" d="M37 205h68v76H37zm141-7h68v83h-68z"/>
        </g>
        <g class="highcharts-series highcharts-series-1 highcharts-column-series highcharts-color-undefined" transform="translate(53 70)" clip-path="url(#a)">
            <path fill="#73BA7C" class="highcharts-point" d="M37 63h68v142H37zm141-6h68v141h-68z"/>
        </g>
        <g class="highcharts-series highcharts-series-2 highcharts-column-series highcharts-color-undefined" transform="translate(53 70)" clip-path="url(#a)">
            <path fill="#C8C8C8" class="highcharts-point" d="M37 47h68v16H37zm141-3h68v13h-68z"/>
        </g>
        <g class="highcharts-series highcharts-series-3 highcharts-column-series highcharts-color-undefined" transform="translate(53 70)" clip-path="url(#a)">
            <path fill="#8A8A8A" class="highcharts-point" d="M37 31h68v16H37zm141 2h68v11h-68z"/>
        </g>
        <g class="highcharts-series highcharts-series-4 highcharts-column-series highcharts-color-undefined" transform="translate(53 70)" clip-path="url(#a)">
            <path fill="#FFBB58" class="highcharts-point" d="M37 5h68v26H37zm141 0h68v28h-68z"/>
        </g>
        <g class="highcharts-series highcharts-series-5 highcharts-column-series highcharts-color-undefined" transform="translate(53 70)" clip-path="url(#a)">
            <path fill="#FF8028" class="highcharts-point" d="M37 0h68v5H37zm141 0h68v5h-68z"/>
        </g>
    </g>
    <text x="10" class="highcharts-title" y="21" color="#000" font-size="14" font-weight="700">
        <tspan>Zufriedenheit mit Sozialkontakten im Wohnumfeld</tspan>
    </text>
    <text x="10" class="highcharts-subtitle" y="40" color="#000">
        <tspan>«Wie zufrieden sind Sie am aktuellen Wohnort mit den Sozialkontakten im</tspan><tspan dy="15" x="10">Wohnumfeld/Quartier?»</tspan><title>«Wie zufrieden sind Sie am aktuellen Wohnort mit den Sozialkontakten im Wohnumfeld/Quartier?»</title>
    </text>
    <g class="highcharts-legend" transform="translate(347 135)">
        <rect fill="none" class="highcharts-legend-box" rx="0" ry="0" width="128" height="125"/>
        <g class="highcharts-legend-item highcharts-column-series highcharts-color-undefined highcharts-series-5">
            <text x="21" y="15" color="#333" font-weight="400" cursor="pointer" fill="#333" transform="translate(8 3)">
                <tspan>Sehr unzufrieden</tspan>
            </text>
            <path fill="#FF8028" class="highcharts-point" d="M10 7h12v12H10z"/>
        </g>
        <g class="highcharts-legend-item highcharts-column-series highcharts-color-undefined highcharts-series-4">
            <text x="21" y="15" color="#333" font-weight="400" cursor="pointer" fill="#333" transform="translate(8 22)">
                <tspan>Eher unzufrieden</tspan>
            </text>
            <path fill="#FFBB58" class="highcharts-point" d="M10 26h12v12H10z"/>
        </g>
        <g class="highcharts-legend-item highcharts-column-series highcharts-color-undefined highcharts-series-3">
            <text x="21" y="15" color="#333" font-weight="400" cursor="pointer" fill="#333" transform="translate(8 41)">
                <tspan>Keine Angabe</tspan>
            </text>
            <path fill="#8A8A8A" class="highcharts-point" d="M10 45h12v12H10z"/>
        </g>
        <g class="highcharts-legend-item highcharts-column-series highcharts-color-undefined highcharts-series-2">
            <text x="21" y="15" color="#333" font-weight="400" cursor="pointer" fill="#333" transform="translate(8 60)">
                <tspan>Weiss nicht</tspan>
            </text>
            <path fill="#C8C8C8" class="highcharts-point" d="M10 64h12v12H10z"/>
        </g>
        <g class="highcharts-legend-item highcharts-column-series highcharts-color-undefined highcharts-series-1">
            <text x="21" y="15" color="#333" font-weight="400" cursor="pointer" fill="#333" transform="translate(8 79)">
                <tspan>Eher zufrieden</tspan>
            </text>
            <path fill="#73BA7C" class="highcharts-point" d="M10 83h12v12H10z"/>
        </g>
        <g class="highcharts-legend-item highcharts-column-series highcharts-color-undefined highcharts-series-0">
            <text x="21" y="15" color="#333" font-weight="400" cursor="pointer" fill="#333" transform="translate(8 98)">
                <tspan>Sehr zufrieden</tspan>
            </text>
            <path fill="#007A2F" class="highcharts-point" d="M10 102h12v12H10z"/>
        </g>
    </g>
    <g class="highcharts-axis-labels highcharts-xaxis-labels" text-anchor="middle" color="#000" cursor="default" font-size="11">
        <text x="123.5" y="369">
            <tspan>2011</tspan><tspan x="123.5" dy="14">(N=1689)</tspan>
        </text>
        <text x="264.5" y="369">
            <tspan>2015</tspan><tspan x="264.5" dy="14">(N=1427)</tspan>
        </text>
    </g>
    <g class="highcharts-axis-labels highcharts-yaxis-labels" text-anchor="end" color="#000" cursor="default" font-size="11">
        <text x="38" y="355">
            <tspan>0%</tspan>
        </text>
        <text x="38" y="327">
            <tspan>10%</tspan>
        </text>
        <text x="38" y="299">
            <tspan>20%</tspan>
        </text>
        <text x="38" y="271">
            <tspan>30%</tspan>
        </text>
        <text x="38" y="243">
            <tspan>40%</tspan>
        </text>
        <text x="38" y="215">
            <tspan>50%</tspan>
        </text>
        <text x="38" y="187">
            <tspan>60%</tspan>
        </text>
        <text x="38" y="159">
            <tspan>70%</tspan>
        </text>
        <text x="38" y="131">
            <tspan>80%</tspan>
        </text>
        <text x="38" y="103">
            <tspan>90%</tspan>
        </text>
        <text x="38" y="75">
            <tspan>100%</tspan>
        </text>
    </g>
    <text x="10" class="highcharts-credits" y="400" cursor="default" color="#000" font-size="10">
        <tspan>Quelle: Statistisches Amt Basel-Stadt, kantonale Befragung 55plus: F10g</tspan>
    </text>
</svg>
